X:1
T: Miss Isabella McPherson Grant of Ballindalloch's Strathspey
C:William Marshall
R:Strathspey
Q: 128
K:F
M:4/4
L:1/16
|:a2|cc3 c3B A3c f4|dd3 d3c d3f g3a|f3F A3F Ac3 f4|d3g fedc f4 f2a2|
cc3 c3B A3c f4|dd3 d3c d3f g3a|f3F A3F Ac3 f4|d3g fedc f4 f2g2|
a3g agfe fc3 f4|b3g bagf efga g2fg|a3f agfe f3c df3|c3g efge f4 f2g2|
a3g agfe fc3 f4|b3a bagf efga g2fg|bagf g3e f3c df3|c3f efge f4 f2:|
